X: 1
T:A and D
% Nottingham Music Database
S:EF
M:6/8
K:G
P:A
g/2e/2|"D"fge AFF|"D"E2f f2f|"D"f2a e2f|"A"ecA A3|"D"dcd d2::
B/2f/2|"F"afe edc|"Am"cec "E7"^BA|"D"AGA "A7"cBA|"A7"ABA -gge|
"G"dBG BAB|"G"G2G "D7"cFA|"C"efe "D7"d2e|
"G"d2e "G"d2B|"G"B2d "A"cBF|"D#D"EDF "C"A2:|


